build/finance/DebitCardSolid.svg

<svg xmlns="http://www.w3.org/2000/svg" fill="none" viewBox="0 0 24 24" focusable="false"><path d="M0 0H24V24H0z"/><path fill="#74767B" fill-rule="evenodd" d="M3.02807 7.58793C2.97545 7.97093 3.3134 8.28958 3.7 8.28958L20.3652 8.28958C20.7158 8.28958 21.0203 8.00377 20.9804 7.65543C20.821 6.26134 19.706 5.15759 18.3067 5.01549C18.2059 5.00525 18.1036 5 18 5L6 5C4.48294 5 3.22889 6.12605 3.02807 7.58793ZM6 19C4.34314 19 3 17.6569 3 16L3 10.2896C3 9.90298 3.3134 9.58958 3.7 9.58958L20.3 9.58957C20.6866 9.58957 21 9.90298 21 10.2896L21 16C21 17.6569 19.6569 19 18 19L6 19ZM13.8027 17.1533C13.6303 17.1533 13.465 17.0848 13.3431 16.9629C13.2212 16.841 13.1527 16.6757 13.1527 16.5033L13.1527 12.042C13.1527 11.683 13.4438 11.392 13.8027 11.392L16.2869 11.392C16.6458 11.392 16.9369 11.683 16.9369 12.042C16.9369 12.401 16.6458 12.692 16.2869 12.692L14.4527 12.692L14.4527 13.4757L15.6934 13.4757C16.709 13.4757 17.5322 14.299 17.5322 15.3145C17.5322 16.3301 16.709 17.1533 15.6934 17.1533L13.8027 17.1533ZM7.61393 12.0504C7.61393 11.6915 7.90494 11.4004 8.26393 11.4004L10.7788 11.4004C11.1378 11.4004 11.4288 11.6915 11.4288 12.0504L11.4288 15.8533L11.8201 15.8533C12.1791 15.8533 12.4701 16.1444 12.4701 16.5033C12.4701 16.8623 12.1791 17.1533 11.8201 17.1533L6.54218 17.1533C6.1832 17.1533 5.89218 16.8623 5.89218 16.5033C5.89218 16.1444 6.1832 15.8533 6.54218 15.8533L6.83723 15.8533C6.84007 15.8471 6.84302 15.8408 6.84607 15.8346L7.1684 15.1784C7.46151 14.5816 7.61393 13.9255 7.61393 13.2606L7.61393 12.0504ZM10.1288 15.8533L10.1288 12.7004L8.91393 12.7004L8.91393 13.2606C8.91393 14.1242 8.71597 14.9763 8.33525 15.7515L8.28521 15.8533L10.1288 15.8533ZM15.6934 14.7757L14.4527 14.7757L14.4527 15.8533L15.6934 15.8533C15.991 15.8533 16.2322 15.6121 16.2322 15.3145C16.2322 15.017 15.991 14.7757 15.6934 14.7757Z"/></svg>

<svg xmlns="http://www.w3.org/2000/svg" fill="none" viewBox="0 0 24 24" focusable="false"><path fill="#74767B" fill-rule="evenodd" d="M3.7 8.28c-.39 0-.73-.31-.68-.7A3 3 0 0 1 6 5h12c.1 0 .2 0 .3.01a3.01 3.01 0 0 1 2.68 2.64c.04.35-.27.63-.62.63zM6 19c-1.66 0-3-1.35-3-3v-5.72c0-.38.31-.7.7-.7h16.59c.39 0 .71.32.71.7V16c0 1.65-1.35 3-3 3zm7.8-1.85a.66.66 0 0 1-.46-.19.66.66 0 0 1-.19-.46v-4.46c0-.36.29-.65.65-.65h2.48c.36 0 .65.29.65.65s-.29.65-.65.65h-1.83v.78h1.24c1.01 0 1.84.82 1.84 1.84s-.83 1.84-1.84 1.84zm-6.19-5.1c0-.36.29-.65.65-.65h2.51c.36 0 .65.29.65.65v3.8h.4c.35 0 .65.29.65.65s-.3.65-.65.65H6.54c-.36 0-.65-.29-.65-.65s.29-.65.65-.65h.29c.01-.01.01-.01.01-.02l.32-.66c.3-.59.45-1.25.45-1.91zm2.51 3.8V12.7H8.91v.56c0 .86-.2 1.71-.58 2.49l-.05.1zm5.57-1.08h-1.24v1.08h1.24c.3 0 .54-.24.54-.54s-.24-.54-.54-.54"/></svg>
